!!!COM:	Anonymous
!!!OTL:	Donne vidue / Tarrach barach / Jeus diray
!!!AGN:	Song; Chanson
!!!SCT:	Ano3020
!!!SCA:	Ano3020
!!!SMS:	Pix&eacute;r&eacute;court Chansonnier
!!!folio:	
!!!voices:	4
**kern	**kern	**kern	**kern
*staff4	*staff3	*staff2	*staff1
*Ivox	*Ivox	*Ivox	*Ivox
*I"Contratenor2	*I"Tenor	*I"Contratenor1	*I"Superius
*I'Ct	*I'T	*I'Ct	*I'S
*clefF4	*clefGv2	*clefGv2	*clefG2
*k[b-]	*k[b-]	*k[b-]	*k[b-]
*M2/1	*M2/1	*M2/1	*M2/1
*met(C|)	*met(C|)	*met(C|)	*met(C|)
!!section: Donne vidue
!!!OMD: Donne vidue
=1-	=1-	=1-	=1-
!LO:TX:i:Y=40:t=Donne vidue	!LO:TX:Y=24:t=Jeus diray...	!LO:TX:Y=32:t=Tarrach, barach...	!LO:TX:Y=24:t=Donne vidue...
[0GG	1G	1d	0g
.	1G	2d	.
.	.	2d	.
=2	=2	=2	=2
0GG_	1B-	1d	1.dd
.	1B-	1d	.
.	.	.	2cc
=3	=3	=3	=3
0GG]	1B-	1d	1.b-
.	1B-	[1d	.
.	.	.	4a
.	.	.	4g
=4	=4	=4	=4
0D	1A	1d]	1f
.	1A	1A	1a
=5	=5	=5	=5
1BB-	1d	1.B-	1b-
1GG	1d	.	1b-
.	.	4A	.
.	.	4G	.
=6	=6	=6	=6
0AA	1c	1.F	1.a
.	1A	.	.
.	.	2E	4g
.	.	.	4f
=7	=7	=7	=7
0GG	1B-	1G	0g
.	1B-	2d	.
.	.	2d	.
=8	=8	=8	=8
1.D	0A	2d	0a
.	.	2d	.
.	.	2d	.
2C	.	2d	.
=9	=9	=9	=9
1.BB-	1B-	0d	1r
.	1B-	.	[1dd
2AA	.	.	.
=10	=10	=10	=10
1GG	1d	0r	2dd]
.	.	.	2cc
2.D	1d	.	[1a
4E	.	.	.
=11	=11	=11	=11
2F	1c	0r	1a]
2A	.	.	.
1G	1d	.	1b-
=12	=12	=12	=12
2F	1d	0r	2a
2G	.	.	2g
1D	1d	.	1f
=13	=13	=13	=13
1GG	1d	1G	1b-
1D	1d	2.A	1a
.	.	4B-	.
=14	=14	=14	=14
1E	1G	2c	2g
.	.	1G	4f
.	.	.	4e
1G	1B-	.	2d
.	.	[2d	[2g
=15	=15	=15	=15
0D	1A	2d]	2g]
.	.	2d	2a
.	1A	1d	2f#i
.	.	.	2e
=16	=16	=16	=16
[0GG	0G	1.B-	0g
.	.	2A	.
=17	=17	=17	=17
0GG]	0r	0G	1r
.	.	.	1g
=18	=18	=18	=18
1.G	0r	1r	1.b-
.	.	1g	.
2A	.	.	2cc
=19	=19	=19	=19
1B-	0r	1f	1dd
[1E-	.	[1g	[1ee-
=20	=20	=20	=20
1E-]	0r	2g]	2ee-]
.	.	2f	2dd
1B-	.	1d	[1dd
=21	=21	=21	=21
0A	1A	0e	1dd]
.	1A	.	1cc#i
=22	=22	=22	=22
1.B-	1G	0d	1.dd
.	1G	.	.
4A	.	.	2cc
4G	.	.	.
=23	=23	=23	=23
1F	0r	1f	1a
2B-	.	2d	2b-
2A	.	2e	[2cc
=24	=24	=24	=24
2F	0r	1f	2cc]
2D	.	.	1dd
1A	.	1e	.
.	.	.	2cc
=25	=25	=25	=25
1r	1G	0d	2b-
.	.	.	4a
.	.	.	4g
1D	1A	.	1f
=26	=26	=26	=26
1GG	1G	1r	1b-
[1D	2A	[1d	[1a
.	2A	.	.
=27	=27	=27	=27
1D]	2A	0d_	2a]
.	2A	.	2g
1D	2A	.	1f
.	2A	.	.
=28	=28	=28	=28
0AA	1A	1d]	0e
.	2A	1c#i	.
.	2A	.	.
=29	=29	=29	=29
1D	2A	0d	1d
.	2A	.	.
1D	2A	.	1f
.	2A	.	.
=30	=30	=30	=30
2.E-	1G	2G	1g
.	.	2G	.
4D	.	.	.
1BB-	2d	2G	[1b-
.	2d	2G	.
=31	=31	=31	=31
0GG	2d	1G	2b-]
.	2d	.	1g
.	2d	1B-	.
.	2d	.	2f
=32	=32	=32	=32
1D	1d	1A	1a
[1G	1B-	1G	[1b-
=33	=33	=33	=33
2G]	1G	1G	2b-]
4F	.	.	2a
4E	.	.	.
[1D	1A	[1d	1a
=34	=34	=34	=34
2D]	1A	2d]	1.dd
2C	.	2e	.
1D	1A	1f	.
.	.	.	2cc
=35	=35	=35	=35
1G	1G	0d	1b-
1D	1F	.	1a
=36	=36	=36	=36
0E-i	0G	1B-	1.g
.	.	1c	.
.	.	.	4f
.	.	.	4e
=37	=37	=37	=37
[0D	0A	1d	[0f
.	.	2c	.
.	.	2B-	.
=38	=38	=38	=38
0D;]	0d;	0A;	0f;]
=39	=39	=39	=39
0GG	1d	1.G	0b-
.	1d	.	.
.	.	4F	.
.	.	4E	.
=40	=40	=40	=40
0AA	1c	1F	1.a
.	1A	1F	.
.	.	.	4g
.	.	.	4f
=41	=41	=41	=41
0GG	1B-	1G	0g
.	1G	1B-	.
=42	=42	=42	=42
0D	0F	1A	1a
.	.	1d	1f
=43	=43	=43	=43
1AA	1r	1.c	0e
1C	1C	.	.
.	.	2B-	.
=44	=44	=44	=44
0BB-	1D	0G	1.d
.	1D	.	.
.	.	.	4c
.	.	.	4B-
=45	=45	=45	=45
0AA	1E	[0A	0c
.	1E	.	.
=46	=46	=46	=46
0D	1F	1A]	1r
.	1F	1B-	1f
=47	=47	=47	=47
[0C	0G	0c	1.e
.	.	.	2d
=48	=48	=48	=48
0C]	0c	1r	2e
.	.	.	2f
.	.	1e	1g
=49	=49	=49	=49
1F	1c	0f	0a
1A	1c	.	.
=50	=50	=50	=50
1G	1d	1g	1b-
1D	1d	[1f	[1a
=51	=51	=51	=51
1F	1c	1f]	2a]
.	.	.	2g
1G	1G	1d	[1g
=52	=52	=52	=52
0D	1A	0d	1g]
.	1A	.	1f#i
=53	=53	=53	=53
*M3/1	*M3/1	*M3/1	*M3/1
*met(3)	*met(3)	*met(3)	*met(3)
0.GG	1G	1B-	0g
.	1.B-	0G	.
.	.	.	1r
.	2A	.	.
=54	=54	=54	=54
[0.D	0.F	0A	1a
.	.	.	1.a
.	.	[1d	.
.	.	.	2g
=55	=55	=55	=55
0.D]	2A	0.d]	1f
.	2A	.	.
.	1A	.	0a
.	1A	.	.
=56	=56	=56	=56
1GG	0d	1B-	1g
1D	.	0A	1.f
1F	1c	.	.
.	.	.	2e
=57	=57	=57	=57
1G	1B-	1d	0g
0D	0A	0d	.
.	.	.	1f#i
=58	=58	=58	=58
1.E-	0G	0B-	1.g
2F	.	.	2a
1G	1r	1G	2b-
.	.	.	2cc
=59	=59	=59	=59
0.D	0d	0A	0a
.	1d	1A	1f
=60	=60	=60	=60
0.E	0c	0G	1g
.	.	.	1.e
.	1c	1G	.
.	.	.	2c
=61	=61	=61	=61
0D	0d	0.A	0f
[1F	1d	.	[1a
=62	=62	=62	=62
1F]	1f	0c	1a]
1C	1e	.	1g
1D	1d	1A	1f
=63	=63	=63	=63
[0.AA	0c	0.A	0e
.	1A	.	[1a
=64	=64	=64	=64
1AA]	0c	1F	1a]
0E	.	0G	0g
.	1c	.	.
=65	=65	=65	=65
0.D	0d	0.A	1f
.	.	.	1d
.	1r	.	1f
=66	=66	=66	=66
0.AA	0c	0.A	1e
.	.	.	1.a
.	1c	.	.
.	.	.	2g
=67	=67	=67	=67
0D	1A	0.r	0a
.	0d	.	.
1G	.	.	1b-
=68	=68	=68	=68
1D	1f	1A	0dd
0A	0e	0c	.
.	.	.	1cc
=69	=69	=69	=69
1D	1d	1f	1.dd
1G	0G	1.g	.
.	.	.	2cc
[1B-	.	.	2b-
.	.	2f	2a
=70	=70	=70	=70
2B-]	1.B-	1d	1g
2A	.	.	.
0G	.	0g	1.dd
.	2A	.	.
.	1G	.	.
.	.	.	2cc
=71	=71	=71	=71
1G	0d	1g	1b-
1D	.	0f	1.a
1F	1c	.	.
.	.	.	2g
=72	=72	=72	=72
1G	1B-	1d	0g
0D	0A	0d	.
.	.	.	1f#i
=73	=73	=73	=73
1GG	0.G	1B-	0g
0GG	.	0B-	.
.	.	.	1r
=74	=74	=74	=74
1GG	1d	1G	1g
0GG	0d	1.B-	0g
.	.	2A	.
=75	=75	=75	=75
0.D	0.d	0.F	0.a
=76	=76	=76	=76
2D	2d	2A	2a
2D	2d	2A	2a
1D	1d	1A	1a
1D	1d	1A	1a
=77	=77	=77	=77
0GG	1.B-	0d	0b-
.	2G	.	.
1F	1A	1c	1a
=78	=78	=78	=78
1G	0.d	1B-	1g
0D	.	0A	1.f#i
.	.	.	2e
=79	=79	=79	=79
0.GGl	0.dl	0.Gl	0.gl
==	==	==	==
*-	*-	*-	*-
!!!RDF**kern: l=long note in original notation
!!!RDF**kern: i=editorial accidental
!!!ENC:	Chris Gage 02-25-2015
!!!END:	2015/03/14/
!!!EED:	Jesse Rodin
!!!EEV:	2016/02/23/
!!!ONB:	Translated from MusicXML and edited on 2016/02/23/ by Craig Sapp
!!muse2ps: C^@{COM}\n@{SMS} @{folio}^v85,85,85,150Q16
